images/quotes.svg

<svg width="46" height="36" viewBox="0 0 46 36" fill="none" xmlns="http://www.w3.org/2000/svg">
<path d="M41.748 0L45.4834 3.2959C43.0908 5.39551 41.1377 7.42188 39.624 9.375C38.1592 11.2793 37.2314 12.7197 36.8408 13.6963C36.4502 14.6729 36.084 15.8447 35.7422 17.2119L36.0352 17.6514C39.3066 17.6514 41.6992 18.3594 43.2129 19.7754C44.7266 21.1914 45.4834 23.3887 45.4834 26.3672C45.4834 28.6621 44.6533 30.7373 42.9932 32.5928C41.3818 34.4482 39.3555 35.376 36.9141 35.376C34.1309 35.376 31.8115 34.5947 29.9561 33.0322C28.1006 31.4697 27.1729 28.9551 27.1729 25.4883C27.1729 20.8984 28.5889 16.1621 31.4209 11.2793C34.3018 6.34766 37.7441 2.58789 41.748 0ZM14.5752 0L18.3105 3.2959C15.918 5.39551 13.9893 7.39746 12.5244 9.30176C11.0596 11.2061 10.1074 12.6709 9.66797 13.6963C9.27734 14.7217 8.91113 15.8936 8.56934 17.2119L8.8623 17.6514C12.1338 17.6514 14.5264 18.3594 16.04 19.7754C17.5537 21.1914 18.3105 23.3887 18.3105 26.3672C18.3105 28.6621 17.4805 30.7373 15.8203 32.5928C14.209 34.4482 12.1826 35.376 9.74121 35.376C6.95801 35.376 4.63867 34.5947 2.7832 33.0322C0.927734 31.4697 0 28.9551 0 25.4883C0 20.8984 1.41602 16.1621 4.24805 11.2793C7.12891 6.34766 10.5713 2.58789 14.5752 0Z" fill="white"/>
</svg>

<svg width="46" height="36" fill="none" xmlns="http://www.w3.org/2000/svg"><path d="M41.748 0l3.735 3.296c-2.392 2.1-4.345 4.126-5.859 6.079-1.465 1.904-2.393 3.345-2.783 4.321-.39.977-.757 2.149-1.099 3.516l.293.44c3.272 0 5.664.707 7.178 2.123 1.514 1.416 2.27 3.614 2.27 6.592 0 2.295-.83 4.37-2.49 6.226-1.611 1.855-3.638 2.783-6.079 2.783-2.783 0-5.103-.781-6.958-2.344-1.855-1.562-2.783-4.077-2.783-7.544 0-4.59 1.416-9.326 4.248-14.209C34.3 6.348 37.744 2.588 41.748 0zM14.575 0l3.736 3.296c-2.393 2.1-4.322 4.101-5.787 6.006-1.464 1.904-2.417 3.369-2.856 4.394a33.679 33.679 0 00-1.099 3.516l.293.44c3.272 0 5.664.707 7.178 2.123 1.514 1.416 2.27 3.614 2.27 6.592 0 2.295-.83 4.37-2.49 6.226-1.611 1.855-3.637 2.783-6.079 2.783-2.783 0-5.102-.781-6.958-2.344C.928 31.47 0 28.955 0 25.488c0-4.59 1.416-9.326 4.248-14.209C7.128 6.348 10.571 2.588 14.575 0z" fill="#fff"/></svg>
